X: 21718
T: Kinclaven Brig
R: barndance
M: 4/4
K: Gmajor
M:2/4
|:E/F/|GB DB|GB D>G|BB/A/ G/A/B/d/|cE E>G|
FA EA|1 FA d>e|fe A/B/c/e/|dB B:|2 FA f>e|dc E/F/B/A/|GD G||
B/c/|dB gB|g/f/e d2|dd/B/ G/B/d/g/|fe eA/B/|
cA fA|ed F>e|ff/e/ A/B/c/e/|dB BB/c/|
dB gB|g/f/e d2|D/G/B/d/ g/f/a/g/|(3fgf e e>g|
f/a/e/g/ ff|f/e/c/A/ EE|F/G/A/B/ c/d/e/f/|gG G||

